X: 16013
T: Great Silkie Of Sule Skerry, The
R: waltz
M: 3/4
K: Cmajor
G2|G4 B2|A F3 F2|F3 G A2|G4z B|B4 B2|
c4z A|A c3 c2|B4z B|c c3 e|d4 B2|
A4 c2|B4 B2|A4 EE|E4 E2|F4 G2|G3||

